X:1
T:Title
%%score { ( 1 3 ) | ( 2 4 ) }
L:1/8
M:4/4
K:C
V:1 treble nm="Grand Piano"
V:3 treble 
V:2 bass 
V:4 bass 
V:1
 z4 z2[Q:1/4=92] [CE][DF] | [EG][EG][EG][EG] [FA][EG][EG][EG] | [Gc]2 [Gd]2 [Ge]2 [CGc][CGB] | %3
[M:2/4] [CFA][CFA] [CFA][CGB] | [CAc][CAc] [CGB][CFA] | %5
[M:9/8] [CEG]2 [G,CE]- [G,CE] [B,D]2- [B,D][G,CE][DF] |[M:4/4] [EG][EG][EG][EG] [FA][EG][EG][EG] | %7
 [Gc]2 [FA]2 [EG]2 EE | FFFG AAA[GB] |[M:7/8] [Ac]2 [Ad]2 [^Ge]3 |[M:1/4] [Ge][Ge] | %11
[M:4/4] [Gd]6[K:bass][K:treble] z2 | [Ec]6 z2 | [GB]4 [^FA]4 | G6 E[DF] | %15
 [EG][EG][EG][EG] [FA][EG][EG][EG] | [Gc]2 d2 e2 [Ge][Ge] | F4 A2 z2 |[M:7/8] [Ge]2 [Fd]2 [Ec]3 |] %19
V:2
 z4 z2 [C,G,][C,C] | [C,C][C,C][C,C][C,C] [C,C][C,C][C,C][C,C] | [E,C]2 [G,B,]2 C2 E,E, | %3
[M:2/4] F,F, F,F, | F,F, F,F, |[M:9/8] C,2 E,- E, G,2- G,C,[C,C] | %6
[M:4/4] [C,C][C,C][C,C][C,C] [C,C][C,C][C,C][C,C] | [E,C]2 [F,C]2 [C,C]2 [C,G,C][C,G,C] | %8
 [F,A,C][F,A,C][F,A,C][F,B,C] [F,CF][F,CF][F,CF][F,C] |[M:7/8] [F,C]2 [F,A,]2 [E,B,]3 | %10
[M:1/4] [C,C][C,C] |[M:4/4] [G,B,]G,G,G, G,G,[K:treble][G,B,G][G,B,F] | [C,C]C,C,C, C,C,[C,G,]C, | %13
 D,D,D,D, D,2 D,2 | [G,B,]6 [C,G,C][C,C] | [C,C][C,C][C,C][C,C] [C,C][C,C][C,C][C,C] | %16
 [E,C]2[K:treble] [G,B,G]2 [CG]2[K:bass] [C,C][C,C] | z4 F2 z2 |[M:7/8] [G,C]2 [G,B,]2 [C,C]3 |] %19
V:3
 x8 | x8 | x8 |[M:2/4] x4 | x4 |[M:9/8] x9 |[M:4/4] x8 | x8 | x8 |[M:7/8] x7 |[M:1/4] x2 | %11
[M:4/4] z[K:bass] B,B,B, B,B,[K:treble]ed | z G,G,G, G,G,[Ec][EGc] | DDDD D2 C2 | x8 | x8 | x8 | %17
 d-[A,d-][A,d]c z C[CGc][Ad] |[M:7/8] x7 |] %19
V:4
 x8 | x8 | x8 |[M:2/4] x4 | x4 |[M:9/8] x9 |[M:4/4] x8 | x8 | x8 |[M:7/8] x7 |[M:1/4] x2 | %11
[M:4/4] x6[K:treble] x2 | x8 | x8 | x8 | x8 | x2[K:treble] x4[K:bass] x2 | %17
 [F,A,]F,F,[F,A,] [F,C]F,E,[F,C] |[M:7/8] x7 |] %19

